icons/outline/building-office-2.svg

<svg width="24" height="24" viewBox="0 0 24 24" fill="none" xmlns="http://www.w3.org/2000/svg">
<path d="M2.25 21H21.75M3.75 3V21M14.25 3V21M20.25 7.5V21M6.75 6.75H7.5M6.75 9.75H7.5M6.75 12.75H7.5M10.5 6.75H11.25M10.5 9.75H11.25M10.5 12.75H11.25M6.75 21V17.625C6.75 17.0037 7.25368 16.5 7.875 16.5H10.125C10.7463 16.5 11.25 17.0037 11.25 17.625V21M3 3H15M14.25 7.5H21M17.25 11.25H17.2575V11.2575H17.25V11.25ZM17.25 14.25H17.2575V14.2575H17.25V14.25ZM17.25 17.25H17.2575V17.2575H17.25V17.25Z" stroke="#0F172A" stroke-width="1.5" stroke-linecap="round" stroke-linejoin="round"/>
</svg>

<svg xmlns="http://www.w3.org/2000/svg" fill="none" viewBox="0 0 24 24" stroke-width="1.5" stroke="currentColor" aria-hidden="true">
  <path stroke-linecap="round" stroke-linejoin="round" d="M2.25 21h19.5m-18-18v18m10.5-18v18m6-13.5V21M6.75 6.75h.75m-.75 3h.75m-.75 3h.75m3-6h.75m-.75 3h.75m-.75 3h.75M6.75 21v-3.375c0-.621.504-1.125 1.125-1.125h2.25c.621 0 1.125.504 1.125 1.125V21M3 3h12m-.75 4.5H21m-3.75 3.75h.008v.008h-.008v-.008zm0 3h.008v.008h-.008v-.008zm0 3h.008v.008h-.008v-.008z"/>
</svg>
